actions/22x22-dark/audio-ready.svg

<svg viewBox="0 0 22 22" xmlns="http://www.w3.org/2000/svg"><path d="m11.033203 4.0625c-.197754 0-.369138.0724029-.513672.2167969l-3.7988279 3.7988281h-2.9902343c-.1978941 0-.3691378.0724029-.5136719.2167969-.1445341.1445341-.2167969.3159179-.2167969.5136719v4.3828122c0 .197754.0722628.369278.2167969.513672.1446741.144534.3159179.216797.5136719.216797h2.9902343l3.7988279 3.798828c.144534.144394.315918.216797.513672.216797.197894 0 .369138-.072403.513672-.216797s.216797-.315918.216797-.513672v-12.4140622c0-.197754-.072403-.3691378-.216797-.5136719-.144674-.144394-.315778-.2167969-.513672-.2167969zm6.986328 4.21875c-.112663 0-.208302.0402815-.287109.1191406l-2.771484 2.7753904-1.240235-1.2460935c-.078859-.0788592-.174498-.1191406-.287109-.1191406-.112664 0-.210204.0402814-.289063.1191406l-.574219.5742185c-.078859.078859-.117187.174446-.117187.28711 0 .112611.038328.208302.117187.287109l1.529297 1.529297.574219.574219c.078807.078859.174446.11914.28711.11914.112611 0 .20825-.040333.287109-.11914l.576172-.574219 3.05664-3.0585939c.078808-.0788592.119141-.174446.119141-.2871093.000052-.1126116-.040333-.2082502-.119141-.2871094l-.574218-.5742188c-.078808-.0788591-.174498-.1191406-.28711-.1191406z" fill="#f2f2f2"/></svg>

<svg xmlns="http://www.w3.org/2000/svg" viewBox="0 0 22 22">
  <defs id="defs3051">
    <style type="text/css" id="current-color-scheme">
      .ColorScheme-Text {
        color:#f2f2f2
      }
      </style>
  </defs>
 <path 
     style="fill:currentColor;fill-opacity:1;stroke:none"      
	 class="ColorScheme-Text"
        d="M 11.033203 4.0625 C 10.835449 4.0625 10.664065 4.1349029 10.519531 4.2792969 L 6.7207031 8.078125 L 3.7304688 8.078125 C 3.5325747 8.078125 3.361331 8.1505279 3.2167969 8.2949219 C 3.0722628 8.439456 3 8.6108398 3 8.8085938 L 3 13.191406 C 3 13.38916 3.0722628 13.560684 3.2167969 13.705078 C 3.361471 13.849612 3.5327148 13.921875 3.7304688 13.921875 L 6.7207031 13.921875 L 10.519531 17.720703 C 10.664065 17.865097 10.835449 17.9375 11.033203 17.9375 C 11.231097 17.9375 11.402341 17.865097 11.546875 17.720703 C 11.691409 17.576309 11.763672 17.404785 11.763672 17.207031 L 11.763672 4.7929688 C 11.763672 4.5952148 11.691269 4.423831 11.546875 4.2792969 C 11.402201 4.1349029 11.231097 4.0625 11.033203 4.0625 z M 18.019531 8.28125 C 17.906868 8.28125 17.811229 8.3215315 17.732422 8.4003906 L 14.960938 11.175781 L 13.720703 9.9296875 C 13.641844 9.8508283 13.546205 9.8105469 13.433594 9.8105469 C 13.32093 9.8105469 13.22339 9.8508283 13.144531 9.9296875 L 12.570312 10.503906 C 12.491453 10.582765 12.453125 10.678352 12.453125 10.791016 C 12.453125 10.903627 12.491453 10.999318 12.570312 11.078125 L 14.099609 12.607422 L 14.673828 13.181641 C 14.752635 13.2605 14.848274 13.300781 14.960938 13.300781 C 15.073549 13.300781 15.169188 13.260448 15.248047 13.181641 L 15.824219 12.607422 L 18.880859 9.5488281 C 18.959667 9.4699689 19 9.3743821 19 9.2617188 C 19.000052 9.1491072 18.959667 9.0534686 18.880859 8.9746094 L 18.306641 8.4003906 C 18.227833 8.3215315 18.132143 8.28125 18.019531 8.28125 z "
     />
</svg>
